svgs/bmkg.svg

<svg width="192" height="192" viewBox="0 0 192 192" fill="none" xmlns="http://www.w3.org/2000/svg">
<path d="M78.5 120L63.7334 104H22.4297C26.4186 141.106 57.8349 170 96.001 170C128.47 170 156.053 149.089 166.021 120H78.5ZM78.5 120L93.2666 136L108.033 152L122.8 168" stroke="black" stroke-width="12" stroke-linejoin="round"/>
<path d="M96.002 22C134.168 22 165.584 50.8935 169.573 88H138.339C138.503 87.0243 138.589 86.0222 138.589 85C138.589 75.0589 130.53 67 120.589 67C116.695 67.0001 113.09 68.2364 110.146 70.3379C106.124 58.51 94.9243 50 81.7363 50C68.1376 50.0001 56.654 59.0488 52.9736 71.4531C49.8452 65.2528 43.4201 61 36.001 61C34.0265 61 32.1224 61.3014 30.332 61.8604C42.6709 38.1742 67.447 22 96.002 22Z" stroke="black" stroke-width="12" stroke-linejoin="round"/>
</svg>

<svg xmlns="http://www.w3.org/2000/svg" width="192" height="192" fill="none" viewBox="0 0 192 192"><path stroke="#000" stroke-linejoin="round" stroke-width="12" d="m78.5 120-14.767-16H22.43c3.989 37.106 35.405 66 73.571 66 32.469 0 60.052-20.911 70.02-50zm0 0 14.767 16 14.766 16 14.767 16M96.002 22c38.166 0 69.582 28.894 73.571 66h-31.234c.164-.976.25-1.978.25-3 0-9.941-8.059-18-18-18a17.9 17.9 0 0 0-10.443 3.338C106.124 58.51 94.924 50 81.736 50c-13.598 0-25.082 9.049-28.762 21.453C49.845 65.253 43.42 61 36 61c-1.974 0-3.879.301-5.669.86C42.671 38.174 67.447 22 96.002 22Z"/></svg>
